icons/svg/admin_16.svg

<?xml version="1.0" encoding="UTF-8"?>
<svg width="16px" height="16px" viewBox="0 0 16 16" version="1.1" xmlns="http://www.w3.org/2000/svg" xmlns:xlink="http://www.w3.org/1999/xlink">
    <!-- Generator: Sketch 58 (84663) - https://sketch.com -->
    <title>admin_16</title>
    <desc>Created with Sketch.</desc>
    <g id="Icons-Webex" stroke="none" stroke-width="1" fill="none" fill-rule="evenodd">
        <g id="settings/admin_16" fill="#171B1F">
            <g id="admin_16">
                <path d="M12.4988,9.0003 C12.6499429,9.0003 12.7843918,9.08185102 12.8543977,9.20905802 L12.8838,9.2763 L13.1598,10.1083 C13.3308,10.1788 13.4348625,10.2217375 13.5719719,10.2784562 L13.7238,10.3413 L14.5108,9.9483 C14.5688,9.9203 14.6288,9.9063 14.6918,9.9063 C14.76905,9.9063 14.847425,9.9288 14.9138469,9.97295625 L14.9758,10.0243 C15.0791333,10.1276333 15.1171889,10.2754111 15.0818648,10.4114991 L15.0518,10.4913 L14.6578,11.2763 C14.7283,11.44655 14.7712375,11.550425 14.8279563,11.6879094 L14.8908,11.8403 L15.7248,12.1183 C15.8653714,12.1663 15.9670041,12.2855653 15.9931732,12.4282359 L15.9998,12.5013 C15.9998,12.6504429 15.918249,12.7863612 15.791042,12.8567869 L15.7238,12.8863 L14.8908,13.1613 C14.8203,13.33155 14.7768,13.4359875 14.7193781,13.5733312 L14.6558,13.7253 L15.0488,14.5073 C15.1138,14.6373 15.1038,14.7895222 15.0274806,14.9078324 L14.9738,14.9743 C14.8948,15.0533 14.7908,15.0933 14.6878,15.0933 C14.6464667,15.0933 14.6055778,15.0875222 14.5657259,15.0747815 L14.5068,15.0503 L13.7218,14.6593 C13.55155,14.73055 13.447675,14.773675 13.3106125,14.8304406 L13.1588,14.8933 L12.8838,15.7233 C12.8358,15.8647286 12.7158,15.9672184 12.5729195,15.9936149 L12.4998,16.0003 C12.3498,16.0003 12.2152286,15.918749 12.1452052,15.791542 L12.1158,15.7243 L11.8388,14.8943 C11.6693,14.8238 11.5644875,14.7808625 11.4273313,14.7241437 L11.2758,14.6613 L10.4938,15.0543 C10.4378,15.0833 10.3738,15.0973 10.3138,15.0973 C10.2343,15.0973 10.15705,15.0742375 10.0909094,15.0298 L10.0288,14.9783 C9.92546667,14.8749667 9.88602222,14.7278833 9.92030463,14.5920269 L9.9498,14.5123 L10.3418,13.7243 C10.2713,13.5548 10.2278,13.45055 10.1712219,13.313675 L10.1088,13.1623 L9.2778,12.8863 C9.13637143,12.8391571 9.03314694,12.7192796 9.00654052,12.5764166 L8.9998,12.5033 C8.9998,12.3524429 9.08282041,12.217749 9.20981749,12.1477082 L9.2768,12.1183 L10.1108,11.8393 C10.1798,11.6683 10.222925,11.5642375 10.2798313,11.4271281 L10.3428,11.2753 L9.9498,10.4913 C9.88563333,10.3621333 9.89716111,10.21005 9.97396667,10.0923417 L10.0278,10.0263 C10.1068,9.9473 10.2078,9.9063 10.3148,9.9063 C10.3541333,9.9063 10.3956889,9.91252222 10.4353185,9.92526296 L10.4928,9.9493 L11.2778,10.3403 C11.44655,10.2698 11.5506125,10.2268625 11.6878625,10.1701437 L11.8398,10.1073 L12.1158,9.2763 C12.1629429,9.13487143 12.2828204,9.03311633 12.4256834,9.00692974 L12.4988,9.0003 L12.5008,9.0003 Z M8,0 C10.763,0 13,2.239 13,5 C13,7.761 10.763,10 8,10 L8,10 L4.703,10 C3.213,10 1.918,11.087 1.553,12.644 L1.553,12.644 L1.002,14.993 L8.5,15 C8.775,15 9,15.225 9,15.5 C9,15.775 8.775,16 8.5,16 L8.5,16 L0.97,16 C0.678,16 0.404,15.866 0.22,15.633 C0.025,15.389 -0.044,15.072 0.027,14.764 L0.027,14.764 L0.578,12.415 C1.05,10.405 2.746,9 4.703,9 L4.703,9 L5.027,9 C3.804,8.088 3,6.644 3,5 C3,2.239 5.238,0 8,0 Z M12.4998,10.8583 C12.4451333,10.9056333 12.3855778,10.9476333 12.3217259,10.9831148 L12.2228,11.0313 L11.6588,11.2643 C11.5568,11.3063 11.4488,11.3313 11.3408,11.3383 C11.3361333,11.4109667 11.3234667,11.4827444 11.3030963,11.5530407 L11.2668,11.6573 L11.0988,12.0643 L11.0338,12.2203 C10.9908,12.3243 10.9318,12.4193 10.8598,12.5013 C10.9064667,12.5553 10.9478,12.6146333 10.9829111,12.6787074 L11.0308,12.7783 L11.1498,13.0593 L11.2658,13.3403 C11.3088,13.4453 11.3328,13.5533 11.3398,13.6643 C11.4111333,13.6689667 11.4829111,13.6811889 11.552763,13.701263 L11.6558,13.7373 L11.9398,13.8533 L12.2198,13.9693 C12.3228,14.0123 12.4168,14.0713 12.4978,14.1423 C12.5524667,14.0949667 12.6120222,14.0529667 12.6764667,14.0177815 L12.7768,13.9703 L12.9428,13.9013 L13.3378,13.7363 C13.4428,13.6933 13.5498,13.6693 13.6588,13.6623 C13.6634667,13.5896333 13.6765778,13.5174111 13.6975407,13.4465222 L13.7348,13.3413 L13.8328,13.1003 L13.9668,12.7783 C14.0098,12.6753 14.0698,12.5823 14.1408,12.5003 C14.0934667,12.4456333 14.0505778,12.3856333 14.0148,12.3208926 L13.9668,12.2203 L13.8498,11.9393 L13.7348,11.6573 C13.6928,11.5543 13.6668,11.4473 13.6598,11.3393 C13.5878,11.3346333 13.5162444,11.3219667 13.4457259,11.3015963 L13.3408,11.2653 L13.1038,11.1663 L12.7788,11.0313 C12.6748,10.9893 12.5808,10.9303 12.4998,10.8583 Z M12.5,12 C12.776,12 13,12.224 13,12.5 C13,12.776 12.776,13 12.5,13 C12.225,13 12,12.776 12,12.5 C12,12.224 12.225,12 12.5,12 Z M8,1 C5.794,1 4,2.794 4,5 C4,7.206 5.794,9 8,9 C10.206,9 12,7.206 12,5 C12,2.794 10.206,1 8,1 Z" id="fill"></path>
            </g>
        </g>
    </g>
</svg>

<svg width="16" height="16" viewBox="0 0 16 16" xmlns="http://www.w3.org/2000/svg"><title>settings/admin_16</title><path d="M15.7248 12.1183c.164.056.275.209.275.383l0 .002c0 .172-.111.328-.276.383l-.833.275c-.094.227-.14.337-.235.564l.393.782c.078.156.048.344-.075.467l-.001.001c-.078.078-.182.118-.285.118-.062 0-.123-.013-.181-.043l-.785-.391c-.227.095-.336.14-.563.234l-.275.83c-.056.165-.21.277-.384.277l-.001 0c-.174 0-.328-.111-.383-.276l-.277-.83c-.226-.094-.337-.139-.563-.233l-.782.393c-.056.029-.12.043-.18.043-.106 0-.208-.041-.285-.119l-.002-.001c-.122-.123-.154-.31-.077-.465l.392-.788c-.094-.226-.14-.336-.233-.562l-.831-.276c-.165-.055-.278-.209-.278-.383l0-.002c0-.174.113-.328.277-.383l.834-.279c.092-.228.138-.337.232-.564l-.393-.784c-.077-.155-.045-.343.078-.465l.001-.002c.078-.077.179-.118.286-.118.059 0 .123.014.178.043l.785.391c.225-.094.335-.139.562-.233l.276-.831c.055-.165.209-.276.383-.276l.002 0c.174 0 .328.111.383.276l.276.832c.228.094.337.139.564.233l.787-.393c.058-.028.118-.042.181-.042.103 0 .208.04.284.118l.001.001c.123.123.153.311.075.466l-.394.785c.094.227.139.336.233.564l.834.278zm-1.758.66c.043-.103.103-.196.174-.278-.071-.082-.132-.176-.174-.28l-.117-.281-.115-.282c-.042-.103-.068-.21-.075-.318-.108-.007-.215-.032-.319-.074l-.237-.099-.325-.135c-.104-.042-.198-.101-.279-.173-.082.071-.175.13-.277.173l-.564.233c-.102.042-.21.067-.318.074-.007.109-.032.216-.074.319l-.168.407-.065.156c-.043.104-.102.199-.174.281.07.081.128.174.171.277l.119.281.116.281c.043.105.067.213.074.324.107.007.215.031.316.073l.284.116.28.116c.103.043.197.102.278.173.082-.071.175-.13.279-.172l.166-.069.395-.165c.105-.043.212-.067.321-.074.007-.109.033-.217.076-.321l.098-.241.134-.322zM12.5 12c.276 0 .5.224.5.5 0 .276-.224.5-.5.5-.275 0-.5-.224-.5-.5 0-.276.225-.5.5-.5zm-4 3c.275 0 .5.225.5.5 0 .275-.225.5-.5.5L.97 16c-.292 0-.566-.134-.75-.367-.195-.244-.264-.561-.193-.869l.551-2.349C1.05 10.405 2.746 9 4.703 9l.324 0C3.804 8.088 3 6.644 3 5c0-2.761 2.238-5 5-5 2.763 0 5 2.239 5 5 0 2.761-2.237 5-5 5l-3.297 0c-1.49 0-2.785 1.087-3.15 2.644l-.551 2.349L8.5 15zM4 5c0 2.206 1.794 4 4 4 2.206 0 4-1.794 4-4 0-2.206-1.794-4-4-4-2.206 0-4 1.794-4 4z" fill="#000" fill-rule="evenodd"/></svg>
